X:540
T:30-{\aa}rsjiggen
R:jig
C:Roger Tallroth, Sweden
S:Lari Candelay
H:This version has obviously been through the "folk process"
Z:id:hn-jig-540
M:6/8
L:1/8
K:G
~E3 ~F3 | GBG D2D | EcB AGE | G2A AFD |
~E3 ~F3 | GBG D2D | EcB AGE | G3 G2D :|
|: ~g3 agf | ~g3 dB/c/d | egf edc | BAG AB/c/d |
~g3 agf | ~g3 dB/c/d | ~e3 ~f3 | agf g3d :|

